components/ui-node-icon/src/sortByDescending/sortByDescending.large.svg

<svg width="32" height="32" viewBox="0 0 32 32" fill="none" xmlns="http://www.w3.org/2000/svg">
  <path d="M25.5 6.5H4V24.6648C4 25.5443 5.05357 25.9954 5.69008 25.3885L25.5 6.5Z" fill="var(--tbl--colors--icons--clean--secondary)"/>
  <path fill-rule="evenodd" clip-rule="evenodd" d="M5 6C4.44772 6 4 6.44772 4 7C4 7.55228 4.44772 8 5 8H24.5C25.0523 8 25.5 7.55228 25.5 7C25.5 6.44772 25.0523 6 24.5 6H5ZM25 14C25 13.4477 24.5523 13 24 13C23.4477 13 23 13.4477 23 14V22.5858L21.7071 21.2929C21.3166 20.9024 20.6834 20.9024 20.2929 21.2929C19.9024 21.6834 19.9024 22.3166 20.2929 22.7071L23.2929 25.7071C23.4804 25.8946 23.7348 26 24 26C24.2652 26 24.5196 25.8946 24.7071 25.7071L27.7071 22.7071C28.0976 22.3166 28.0976 21.6834 27.7071 21.2929C27.3166 20.9024 26.6834 20.9024 26.2929 21.2929L25 22.5858V14Z" fill="var(--tbl--colors--icons--clean--primary)"/>
</svg>

<svg xmlns="http://www.w3.org/2000/svg" width="32" height="32" fill="none" viewBox="0 0 32 32">
  <path fill="var(--tbl--colors--icons--clean--secondary)" d="M25.5 6.5H4v18.165c0 .88 1.054 1.33 1.69.724L25.5 6.5Z"/>
  <path fill="var(--tbl--colors--icons--clean--primary)" fill-rule="evenodd" d="M5 6a1 1 0 0 0 0 2h19.5a1 1 0 1 0 0-2H5Zm20 8a1 1 0 1 0-2 0v8.586l-1.293-1.293a1 1 0 0 0-1.414 1.414l3 3a1 1 0 0 0 1.414 0l3-3a1 1 0 0 0-1.414-1.414L25 22.586V14Z" clip-rule="evenodd"/>
</svg>
